X: 5975
T: Camptown Races
R: polka
M: 2/4
K: Amajor
|:c/e/|fe ce|fe cA|cB BA/B/|cB Bc/e/|
f/g/f/e/ ce|fe ce|BG/B/ cB|A2 A:|
|:c|ec ef|a2 ag/a/|fe/f/ af|e2 ec/e/|
fe cA|fe ce|BG/4A/4B/ cB|A2 A:|
F|:E>F AB|c/e/c/B/ ce|fe ce|fa af/a/|
ba fe|c/e/c/B/ ce|BG/4A/4B/ cB|1 A2 A/B/A/F/:|2 A2 A||

